!!!COM: Corelli, Arcangelo
!!!OTL: 
!!!ONM: Opus 3, No. 3
!!!OMV: 2
!!!CDT: 1653/2/17/-1713/1/8/
!!!OCY: Italia
**kern	**kern	**kern	**kern
*clefC	*clefC	*clefG	*clefG
*k[b-]	*k[b-]	*k[b-]	*k[b-]
*F:	*F:	*F:	*F:
*M3/4	*M3/4	*M3/4	*M3/4
=1	=1	=1	=1
4B-	4B-	4ff	4dd
4.A	4.A	4.ff	4.cc
8A	8A	8ff	8cc
=2	=2	=2	=2
2B-	2B-	2ff	4dd
.	.	.	4b-
4A	4A	4cc	[4ff
=3	=3	=3	=3
4B-	4B-	4dd	4ff]
4G	4G	2b-	2ee
4C	4C	.	.
=4	=4	=4	=4
2F	2F	2a	2ff
4F	4F	[4ff	4a
=5	=5	=5	=5
4G	4G	4ff]	4b-
4.A	4.A	4.ee-	2cc
8A	8A	8ff	.
=6	=6	=6	=6
4.B-	4.B-	4.dd	4.f
8D	8D	8ff	8f
4E-	4E-	4gg	[4b-
=7	=7	=7	=7
4BB-	4BB-	4dd	4b-]
2F	2F	2cc	2a
=8	=8	=8	=8
2.B-	2.B-	8dd	2.b-
.	.	8b-	.
.	.	8dd	.
.	.	8ff	.
.	.	8dd	.
.	.	8b-	.
=9	=9	=9	=9
2.A	2.A	2cc	8ccc
.	.	.	8ff
.	.	.	8aa
.	.	.	8ccc
.	.	4r	8aa
.	.	.	8ff
=10	=10	=10	=10
2.G	2.G	8dd	2bb-
.	.	8g	.
.	.	8b-	.
.	.	8dd	.
.	.	8b-	4r
.	.	8g	.
=11	=11	=11	=11
2.F	2.F	2.a	8cc
.	.	.	8f
.	.	.	8a
.	.	.	8cc
.	.	.	8ff
.	.	.	8cc
=12	=12	=12	=12
2.BB-	2.BB-	8ff	2dd
.	.	8b-	.
.	.	8dd	.
.	.	8ff	.
.	.	8bb-	4r
.	.	8dd	.
=13	=13	=13	=13
2.C	2.C	2ee	8gg
.	.	.	8cc
.	.	.	8ee
.	.	.	8gg
.	.	4r	8ccc
.	.	.	8gg
=14	=14	=14	=14
2.F	2.F	8cc	2aa
.	.	8f	.
.	.	8a	.
.	.	8cc	.
.	.	8ff	4r
.	.	8cc	.
=15	=15	=15	=15
2.BB-	2.BB-	8dd	8ff
.	.	8ff	8b-
.	.	8b-	8dd
.	.	8dd	8ff
.	.	8gg	8bb-
.	.	8ff	8aa
=16	=16	=16	=16
4C	4C	4ee	8gg
.	.	.	8cc
8r	8r	8r	8ff
8AA	8AA	8cc	8a
4BB-	4BB-	8d	8dd
.	.	8e	8cc
=17	=17	=17	=17
4FF	4FF	4f	8b-
.	.	.	8a
2C	2C	4.f	2g
.	.	8e	.
=18	=18	=18	=18
2.F	2.F	2f	8a
.	.	.	8f
.	.	.	8a
.	.	.	8cc
.	.	4r	8ff
.	.	.	8cc
=19	=19	=19	=19
2.F	2.F	8cc	2a
.	.	8f	.
.	.	8a	.
.	.	8cc	.
.	.	8ff	4r
.	.	8cc	.
=20	=20	=20	=20
2.BB-	2.BB-	2dd	8ff
.	.	.	8b-
.	.	.	8dd
.	.	.	8ff
.	.	4r	8bb-
.	.	.	8ff
=21	=21	=21	=21
2.BB-	2.BB-	8ff	2dd
.	.	8b-	.
.	.	8dd	.
.	.	8ff	.
.	.	8bb-	4r
.	.	8ff	.
=22	=22	=22	=22
2.E-	2.E-	2gg	8r
.	.	.	16bb-
.	.	.	16aa
.	.	.	8gg
.	.	.	8bb-
.	.	4r	8ee-
.	.	.	8gg
=23	=23	=23	=23
2.E-	2.E-	8r	8cc
.	.	16bb-	16gg
.	.	16aa	16ff
.	.	8gg	8ee-
.	.	8bb-	8gg
.	.	8ee-	8cc
.	.	8gg	8ee-
=24	=24	=24	=24
2F	2F	4cc	8a
.	.	.	8f
.	.	8r	4.dd
.	.	8f	.
4D	4D	8b-	.
.	.	8a	8cc
=25	=25	=25	=25
2E-	2E-	8g	8b-
.	.	8b-	8g
.	.	8e-	4.ee-
.	.	8g	.
4C	4C	8cc	.
.	.	8b-	8dd
=26	=26	=26	=26
2F	2F	4.a	8cc
.	.	.	8a
.	.	.	4.ff
.	.	8a	.
4D	4D	8dd	.
.	.	8cc	8ee-
=27	=27	=27	=27
2G	2G	8b-	8dd
.	.	8dd	8b-
.	.	8g	4.gg
.	.	8b-	.
4E-	4E-	8ee-	.
.	.	8dd	8bb-
=28	=28	=28	=28
4F	4F	4cc	8aa
.	.	.	8ff
8r	8r	8r	8bb-
8D	8D	8ff	8dd
4E-	4E-	4bb-	8gg
.	.	.	8b-
=29	=29	=29	=29
4BB-	4BB-	4b-	8ee-
.	.	.	8dd
2F	2F	4.b-	4.cc
.	.	8a	8ff
=30	=30	=30	=30
2BB-	2BB-	2b-	2dd
[4AA	[4AA	[4ff	[4cc
=31	=31	=31	=31
4AA]	4AA]	4ff]	4cc]
2GG	2GG	4.ee	4.b-
.	.	8ff	8a
=32	=32	=32	=32
2FF	2FF	2ff	2a
4r	4r	4r	4r
==	==	==	==
*-	*-	*-	*-
!!!RWG: This file only contains pitch and duration data.
!!!RWG: Transposing instruments are not transposed.
!!!RWG: Durations of rests and tied notes may be interpreted.
!!!RWG: Key is interpreted using the Humdrum key tool.
!!!SCA: 
!!!YOR: Chrysander Edition
!!!AGN: chamber
!!!AFT: stage1
!!!ENC: F. Bennion
!!!END: 1997/04/15
!!!AST: baroque
!!!YEC: Copyright 1994, Center for Computer Assisted Research in the Humanities
!!!YEM: Rights to all derivative electronic formats reserved.
!!!YEM: Refer to licensing agreement for further details.
!!!YEN: United States of America
!!!EED: W.B. Hewlett
!!!KEY: 1841753028
!!!EMD: Converted from MuseData to Humdrum Aug 9, 1999, by Bret Aarden using muse2kern.
!!!VTS: 1021411586
